X:1
T:Title
%%score { ( 1 3 ) | ( 2 4 ) }
L:1/8
M:6/8
K:A
V:1 treble nm="Grand Piano"
V:3 treble 
V:2 bass 
V:4 bass 
V:1
 z3 z2[Q:1/4=81] [CE] | [Ec][DB][CA] [CE][CA]>[DB] | [DA] [DG]2- [DG]2 d | dEF GAB | %4
[M:5/8] [Ec]-[Ec]- [Ec]3 |[M:1/8] [CE] |[M:3/4] [Ec][DB] [CA][CE] [CA]>[DB] | [DA][DG]- [DG]3 d | %8
 dE FG c>B |[M:5/8] [CA]-[CA]- [CA]3 |[M:1/8] B |[M:3/4] B^A B[F^d] [=Ac]>[FA] | %12
 [EG][GB]- [GB]3 [GB] | [F^d][Ac] [GB][FA] [EG]>[^DFA] |[M:5/8] [Ac]3 B2 |[M:1/8] [EGB] | %16
[M:3/4] [Ge][EG] [FA][GB] [Ge]>[GB] | [B^d]c- c3 c | ^dc B[FA] [EG]>[^DF] | z2 z d3 |[M:1/8] [CE] | %21
[M:3/4] [Ec][DB] [CA][CE] [CA]>[DB] | [DA][DG]- [DG]3 d | dE FG AB |[M:5/8] [Ec]-[Ec]- [Ec]3 | %25
[M:1/8] [CE] |[M:3/4] [Ec][DB] [CA][CE] [CA]>[DB] | [DA][DG]- [DG]3 d | dE FG c>B | %29
[M:13/8] [CA]-[CA]- [CA]3 z z z z z z z2 |] %30
V:2
 z3 z2 [A,,A,] | [A,,A,][A,,A,][A,,A,] [A,,A,][A,,E,]>[A,,E,] | %2
 [B,,E,] [B,,E,]2- [B,,E,]2 [E,G,E] | [E,G,E][E,G,D][E,A,D] [E,B,D][E,C][E,G,D] | %4
[M:5/8] [A,,A,]-[A,,A,]- [A,,A,]3 |[M:1/8] [A,,A,] | %6
[M:3/4] [A,,A,][A,,A,] [A,,A,][A,,A,] [A,,E,]>[A,,E,] | [B,,E,][B,,E,]- [B,,E,]3 [E,G,E] | %8
 [E,G,E][E,G,D] [E,A,D][E,B,D] [E,A,E]>[E,G,D] |[M:5/8] [A,,A,]-[A,,A,]- [A,,A,]3 | %10
[M:1/8] [E,G,E] |[M:3/4] [E,G,E][E,F,E] [E,G,E][B,,B,] [B,,B,]>[B,,B,] | %12
 [E,B,][E,E]- [E,E]3 [E,B,] | [B,,B,][B,,B,] [B,,B,][B,,B,] [B,,B,]>B,, |[M:5/8] z z2 G2 | %15
[M:1/8] E, |[M:3/4] [E,B,][E,B,] [E,E][E,E] [E,B,]>[E,E] | [A,E][A,EA]- [A,EA]3 [A,EA] | %18
 [B,F][B,A] [B,G][K:bass][B,,B,] [B,,B,]>[B,,A,] | G,3 B,3 |[M:1/8] [A,,A,] | %21
[M:3/4] [A,,A,][A,,A,] [A,,A,][A,,A,] [A,,E,]>[A,,E,] | [B,,E,][B,,E,]- [B,,E,]3 [E,G,E] | %23
 [E,G,E][E,G,D] [E,A,D][E,B,D] [E,C][E,G,D] |[M:5/8] [A,,A,]-[A,,A,]- [A,,A,]3 |[M:1/8] [A,,A,] | %26
[M:3/4] [A,,A,][A,,A,] [A,,A,][A,,A,] [A,,E,]>[A,,E,] | [B,,E,][B,,E,]- [B,,E,]3 [E,G,E] | %28
 [E,G,E][E,G,D] [E,A,D][E,B,D] [E,A,E]>[E,G,D] | %29
[M:13/8] [A,,A,]-[A,,A,]- [A,,A,]3 z z z z z z z2 |] %30
V:3
 x6 | x6 | x6 | x6 |[M:5/8] x5 |[M:1/8] x |[M:3/4] x6 | x6 | x6 |[M:5/8] x5 |[M:1/8] x | %11
[M:3/4] x6 | x6 | x6 |[M:5/8] E-E- E3 |[M:1/8] x |[M:3/4] x6 | x6 | x6 | E6 |[M:1/8] x | %21
[M:3/4] x6 | x6 | x6 |[M:5/8] x5 |[M:1/8] x |[M:3/4] x6 | x6 | x6 |[M:13/8] x13 |] %30
V:4
 x6 | x6 | x6 | x6 |[M:5/8] x5 |[M:1/8] x |[M:3/4] x6 | x6 | x6 |[M:5/8] x5 |[M:1/8] x | %11
[M:3/4] x6 | x6 | x6 |[M:5/8] E,-E,- E,3 |[M:1/8] x |[M:3/4] x6 | x6 | x3[K:bass] x3 | E,6 | %20
[M:1/8] x |[M:3/4] x6 | x6 | x6 |[M:5/8] x5 |[M:1/8] x |[M:3/4] x6 | x6 | x6 |[M:13/8] x13 |] %30

